static/images/logos/GnomeLogoVertical.svg

<?xml version="1.0" encoding="UTF-8" standalone="no"?>
<!-- Created with Inkscape (http://www.inkscape.org/) -->
<svg xmlns:svg="http://www.w3.org/2000/svg" xmlns="http://www.w3.org/2000/svg" version="1.0" width="401.74014" height="488.23227" id="svg1903">
  <defs id="defs1905"/>
  <g transform="translate(-171.1264,-231.669)" id="layer1">
    <g transform="translate(925.8326,120.8762)" id="g3963">
      <g transform="matrix(2.914897,0,0,2.914897,-717.5904,128.5015)" style="fill:black;fill-opacity:1;fill-rule:nonzero;stroke:none;stroke-miterlimit:4" id="g3771">
        <g style="fill:black;fill-opacity:1" id="g3773">
          <path d="M 86.068,0 C 61.466,0 56.851,35.041 70.691,35.041 C 84.529,35.041 110.671,0 86.068,0 z " style="fill:black;fill-opacity:1" id="path3775"/>
          <path d="M 45.217,30.699 C 52.586,31.149 60.671,2.577 46.821,4.374 C 32.976,6.171 37.845,30.249 45.217,30.699 z " style="fill:black;fill-opacity:1" id="path3777"/>
          <path d="M 11.445,48.453 C 16.686,46.146 12.12,23.581 3.208,29.735 C -5.7,35.89 6.204,50.759 11.445,48.453 z " style="fill:black;fill-opacity:1" id="path3779"/>
          <path d="M 26.212,36.642 C 32.451,35.37 32.793,9.778 21.667,14.369 C 10.539,18.961 19.978,37.916 26.212,36.642 L 26.212,36.642 z " style="fill:black;fill-opacity:1" id="path3781"/>
          <path d="M 58.791,93.913 C 59.898,102.367 52.589,106.542 45.431,101.092 C 22.644,83.743 83.16,75.088 79.171,51.386 C 75.86,31.712 15.495,37.769 8.621,68.553 C 3.968,89.374 27.774,118.26 52.614,118.26 C 64.834,118.26 78.929,107.226 81.566,93.248 C 83.58,82.589 57.867,86.86 58.791,93.913 L 58.791,93.913 z " style="fill:black;fill-opacity:1" id="path3783"/>
        </g>
      </g>
      <g transform="matrix(1.098291,0,0,1.098291,41.06056,-50.07504)" id="g3956">
        <path d="M -565.99523,509.46063 C -574.08254,509.67855 -580.46917,512.58511 -585.16594,518.15929 C -590.02979,523.9603 -592.47618,531.9758 -592.47618,542.19791 C -592.47618,552.39185 -590.02967,560.38536 -585.16594,566.18637 C -580.27833,571.98737 -573.56779,574.88503 -565.0083,574.88503 C -556.4252,574.88503 -549.6978,571.98737 -544.83394,566.18637 C -539.97021,560.38536 -537.54036,552.39185 -537.54041,542.19791 C -537.54046,531.9758 -539.97021,523.9603 -544.83394,518.15929 C -549.6978,512.35854 -556.42525,509.46063 -565.0083,509.46063 C -565.34264,509.46063 -565.6665,509.45174 -565.99523,509.46063 z M -565.39302,521.23732 C -565.26375,521.23386 -565.13945,521.23732 -565.0083,521.23732 C -560.78832,521.23732 -557.51834,523.06342 -555.2055,526.72429 C -552.89284,530.38515 -551.72606,535.55217 -551.72601,542.19791 C -551.72601,548.81548 -552.89293,553.94395 -555.2055,557.60482 C -557.51824,561.26568 -560.78836,563.10834 -565.0083,563.10834 C -569.20462,563.10834 -572.44813,561.26568 -574.76087,557.60482 C -577.07361,553.94395 -578.24031,548.81548 -578.24036,542.19791 C -578.24036,535.55217 -577.07352,530.38515 -574.76087,526.72429 C -572.52052,523.17782 -569.40124,521.34825 -565.39302,521.23732 z " style="font-size:148.699646px;font-style:normal;font-variant:normal;font-weight:bold;font-stretch:normal;text-align:start;line-height:125%;writing-mode:lr-tb;text-anchor:start;fill:black;fill-opacity:1;stroke:none;stroke-width:1pt;stroke-linecap:butt;stroke-linejoin:miter;stroke-opacity:1;font-family:Bitstream Vera Sans" id="path3787"/>
        <path d="M -657.35432,568.97161 C -664.47794,574.95396 -675.07651,574.88527 -679.49184,574.88527 C -688.38504,574.88527 -695.43039,571.95648 -700.62797,566.09915 C -705.82562,560.2139 -708.42437,552.24459 -708.42437,542.19124 C -708.42437,532.02546 -705.77791,524.02799 -700.48492,518.19883 C -695.19192,512.36991 -687.94394,509.4552 -678.74079,509.4552 C -675.18834,509.4552 -671.79088,509.84953 -668.54825,510.63793 C -665.28187,511.42634 -662.20622,512.59499 -659.32128,514.14388 L -663.02615,525.09658 C -664.648,524.20885 -666.50495,523.33372 -668.22637,522.71851 C -671.15899,521.73294 -674.10349,521.24028 -677.05988,521.24028 C -682.54367,521.24028 -686.77569,523.05651 -689.75589,526.6892 C -692.71238,530.29374 -694.19059,535.461 -694.19059,542.19124 C -694.19059,548.86539 -692.76009,554.01857 -689.89892,557.65127 C -687.03793,561.28397 -682.73824,563.10019 -677.7037,563.10019 C -672.58894,563.10019 -669.42101,561.81097 -667.73144,560.45257 L -667.73144,549.54113 L -678.81231,549.54113 L -678.81231,538.64304 L -657.35432,538.64304" style="font-size:148.699646px;font-style:normal;font-variant:normal;font-weight:bold;font-stretch:normal;text-align:start;line-height:125%;writing-mode:lr-tb;text-anchor:start;fill:black;fill-opacity:1;stroke:none;stroke-width:1pt;stroke-linecap:butt;stroke-linejoin:miter;stroke-opacity:1;font-family:Bitstream Vera Sans" id="path3789"/>
        <path d="M -528.50252,510.59568 L -510.97842,510.59568 L -498.8189,549.96634 L -486.58785,510.59568 L -471.77604,510.59568 L -465.08472,573.66029 L -478.10259,573.66029 L -482.11739,534.22539 L -494.41996,573.8493 L -503.14624,573.8493 L -515.44887,532.887 L -519.46366,573.66029 L -532.51731,573.66029 L -525.82599,510.59568" style="font-size:148.699646px;font-style:normal;font-variant:normal;font-weight:bold;font-stretch:normal;text-align:start;line-height:125%;writing-mode:lr-tb;text-anchor:start;fill:black;fill-opacity:1;stroke:none;stroke-width:1pt;stroke-linecap:butt;stroke-linejoin:miter;stroke-opacity:1;font-family:Bitstream Vera Sans" id="path3793"/>
        <path d="M -455.68828,510.59568 L -418.53017,510.59568 L -418.53017,522.88751 L -441.91945,522.88751 L -441.91945,535.96848 L -423.93976,535.96848 L -423.93976,546.92217 L -441.91945,546.92217 L -441.91945,561.36846 L -417.74337,561.36846 L -417.74337,573.66029 L -455.68828,573.66029 L -455.68828,510.59568" style="font-size:148.699646px;font-style:normal;font-variant:normal;font-weight:bold;font-stretch:normal;text-align:start;line-height:125%;writing-mode:lr-tb;text-anchor:start;fill:black;fill-opacity:1;stroke:none;stroke-width:1pt;stroke-linecap:butt;stroke-linejoin:miter;stroke-opacity:1;font-family:Bitstream Vera Sans" id="path3795"/>
        <path d="M -647.94283,510.59568 L -639.25593,510.59568 L -611.80678,548.49651 L -611.80678,510.59568 L -600.09145,510.59568 L -600.09145,573.66029 L -608.77835,573.66029 L -636.22745,535.75946 L -636.22745,573.66029 L -647.94283,573.66029 L -647.94283,510.59568" style="font-size:148.699646px;font-style:normal;font-variant:normal;font-weight:bold;font-stretch:normal;text-align:start;line-height:125%;writing-mode:lr-tb;text-anchor:start;fill:black;fill-opacity:1;stroke:none;stroke-width:1pt;stroke-linecap:butt;stroke-linejoin:miter;stroke-opacity:1;font-family:Bitstream Vera Sans" id="path3791"/>
      </g>
      <text x="-406.52405" y="527.92285" style="font-size:25.88836098px;font-style:normal;font-weight:normal;fill:black;fill-opacity:1;stroke:none;stroke-width:1pt;stroke-linecap:butt;stroke-linejoin:miter;stroke-opacity:1;font-family:Bitstream Vera Sans" id="text3797" xml:space="preserve"><tspan x="-406.52405" y="527.92285" style="letter-spacing:9.33191109" id="tspan3799"><tspan style="letter-spacing:0.21289776" id="tspan3801">TM</tspan></tspan></text>
    </g>
  </g>
</svg>

<svg xmlns="http://www.w3.org/2000/svg" version="1.0" width="401.74" height="488.232"><g style="fill:#000;fill-opacity:1;fill-rule:nonzero;stroke:none;stroke-miterlimit:4"><g style="fill:#000;fill-opacity:1"><path d="M86.068 0C61.466 0 56.851 35.041 70.691 35.041 84.529 35.041 110.671 0 86.068 0zM45.217 30.699c7.369.45 15.454-28.122 1.604-26.325-13.845 1.797-8.976 25.875-1.604 26.325zM11.445 48.453c5.241-2.307.675-24.872-8.237-18.718-8.908 6.155 2.996 21.024 8.237 18.718zM26.212 36.642c6.239-1.272 6.581-26.864-4.545-22.273-11.128 4.592-1.689 23.547 4.545 22.273zM58.791 93.913c1.107 8.454-6.202 12.629-13.36 7.179-22.787-17.349 37.729-26.004 33.74-49.706-3.311-19.674-63.676-13.617-70.55 17.167-4.653 20.821 19.153 49.707 43.993 49.707 12.22 0 26.315-11.034 28.952-25.012 2.014-10.659-23.699-6.388-22.775.665z" style="fill:#000;fill-opacity:1" transform="matrix(2.9149 0 0 2.9149 37.116 17.709)"/></g></g><path d="M-565.995 509.46c-8.088.219-14.474 3.125-19.17 8.7-4.865 5.8-7.311 13.816-7.311 24.038 0 10.194 2.446 18.187 7.31 23.988 4.888 5.801 11.598 8.699 20.158 8.699 8.583 0 15.31-2.898 20.174-8.699 4.864-5.8 7.294-13.794 7.294-23.988 0-10.222-2.43-18.238-7.294-24.039-4.864-5.8-11.591-8.698-20.174-8.698-.335 0-.659-.01-.987 0zm.602 11.777c.13-.003.254 0 .385 0 4.22 0 7.49 1.826 9.803 5.487 2.312 3.661 3.479 8.828 3.479 15.474 0 6.617-1.167 11.746-3.48 15.407-2.312 3.66-5.582 5.503-9.802 5.503-4.197 0-7.44-1.842-9.753-5.503-2.313-3.661-3.48-8.79-3.48-15.407 0-6.646 1.167-11.813 3.48-15.474 2.24-3.546 5.36-5.376 9.368-5.487zM-657.354 568.972c-7.124 5.982-17.723 5.913-22.138 5.913-8.893 0-15.938-2.929-21.136-8.786-5.198-5.885-7.796-13.854-7.796-23.908 0-10.166 2.646-18.163 7.94-23.992 5.292-5.83 12.54-8.744 21.743-8.744 3.553 0 6.95.395 10.193 1.183a38.528 38.528 0 0 1 9.227 3.506l-3.705 10.953c-1.622-.888-3.479-1.763-5.2-2.378-2.933-.986-5.877-1.479-8.834-1.479-5.484 0-9.716 1.817-12.696 5.45-2.956 3.604-4.435 8.771-4.435 15.501 0 6.674 1.43 11.828 4.292 15.46 2.861 3.633 7.16 5.45 12.195 5.45 5.115 0 8.283-1.29 9.973-2.648V549.54h-11.081v-10.898h21.458M-528.503 510.596h17.525l12.16 39.37 12.23-39.37h14.812l6.691 63.064h-13.018l-4.014-39.435-12.303 39.624h-8.726l-12.303-40.962-4.015 40.773h-13.053l6.691-63.064M-455.688 510.596h37.158v12.292h-23.39v13.08h17.98v10.954h-17.98v14.446h24.177v12.292h-37.945v-63.064M-647.943 510.596h8.687l27.45 37.9v-37.9h11.715v63.064h-8.687l-27.45-37.9v37.9h-11.715v-63.064" style="font-size:148.699646px;font-style:normal;font-variant:normal;font-weight:700;font-stretch:normal;text-align:start;line-height:125%;writing-mode:lr-tb;text-anchor:start;fill:#000;fill-opacity:1;stroke:none;stroke-width:1pt;stroke-linecap:butt;stroke-linejoin:miter;stroke-opacity:1;font-family:Bitstream Vera Sans" transform="translate(795.767 -160.868) scale(1.09829)"/><text x="-406.524" y="527.923" style="font-size:25.88836098px;font-style:normal;font-weight:400;fill:#000;fill-opacity:1;stroke:none;stroke-width:1pt;stroke-linecap:butt;stroke-linejoin:miter;stroke-opacity:1;font-family:Bitstream Vera Sans" xml:space="preserve" transform="translate(754.706 -110.793)"><tspan x="-406.524" y="527.923" style="letter-spacing:9.33191109"><tspan style="letter-spacing:.21289776">TM</tspan></tspan></text></svg>
